X:1
T:The Lilting Banshee
L:1/8
M:6/8
I:linebreak $
K:G
V:1 treble 
V:1
 G | EAA EAA | BAB G2 A | Bee B^cd | BAB GED | EAA EAA | BAB G2 A | Bee edB |$ dBA A2 :| %9
